X: 20871
T: Hark the Cock crow'd
%R: jig
B: James Oswald "The Caledonian Pocket Companion" v.2 p.87 #1
Z: 2019 John Chambers <jc:trillian.mit.edu>
N: Handwritten "Vol X" at upper left.
N: Added missing flag to initial pickup note.
M: 6/8
L: 1/8
K: D
"_Lively" A |\
F>GA D2d | Tc>de A2c | d>ef Bgf | Te3 A2G |\
F>GA D2d | Tc>de A2g | f>ga A>Bc | d3 D2 :: (F/G/) |\
AFA BGB |
AFA BGB | AFA Bcd | Tc3 A2(c/d/) |\
ece fdf | geg Ha2g | Tf>ed ABc | d3 D2 :: A |\
FDA FDd | cAe cAf |
geb Bcd | Tc3 A2G |\
FDF AFA | dAd fdf | afA Bec | d3 D2 :: (F/G/) |\
A(F/G/A/F/) BGd | A(F/G/A/F/) BGd |
A(F/G/)A Bcd | Tc3 A2(c/d/) |\
e(c/d/e/c/) f(d/e/f/d/) | g(e/f/g/e/) Ha3g | (f/g/a)A Bec | d3 D2 :|
